public/build/img/sistema/panelclientes-bl.svg

<svg width="40" height="29" viewBox="0 0 40 29" fill="none" xmlns="http://www.w3.org/2000/svg">
<path d="M6 12.0625C8.20625 12.0625 10 10.2687 10 8.0625C10 5.85625 8.20625 4.0625 6 4.0625C3.79375 4.0625 2 5.85625 2 8.0625C2 10.2687 3.79375 12.0625 6 12.0625ZM34 12.0625C36.2062 12.0625 38 10.2687 38 8.0625C38 5.85625 36.2062 4.0625 34 4.0625C31.7938 4.0625 30 5.85625 30 8.0625C30 10.2687 31.7938 12.0625 34 12.0625ZM36 14.0625H32C30.9 14.0625 29.9062 14.5062 29.1812 15.225C31.7 16.6062 33.4875 19.1 33.875 22.0625H38C39.1063 22.0625 40 21.1687 40 20.0625V18.0625C40 15.8562 38.2062 14.0625 36 14.0625ZM20 14.0625C23.8687 14.0625 27 10.9312 27 7.0625C27 3.19375 23.8687 0.0625 20 0.0625C16.1313 0.0625 13 3.19375 13 7.0625C13 10.9312 16.1313 14.0625 20 14.0625ZM24.8 16.0625H24.2812C22.9813 16.6875 21.5375 17.0625 20 17.0625C18.4625 17.0625 17.025 16.6875 15.7188 16.0625H15.2C11.225 16.0625 8 19.2875 8 23.2625V25.0625C8 26.7187 9.34375 28.0625 11 28.0625H29C30.6562 28.0625 32 26.7187 32 25.0625V23.2625C32 19.2875 28.775 16.0625 24.8 16.0625ZM10.8188 15.225C10.0938 14.5062 9.1 14.0625 8 14.0625H4C1.79375 14.0625 0 15.8562 0 18.0625V20.0625C0 21.1687 0.89375 22.0625 2 22.0625H6.11875C6.5125 19.1 8.3 16.6062 10.8188 15.225Z" fill="white"/>
</svg>

<svg width="40" height="29" fill="none" xmlns="http://www.w3.org/2000/svg"><path d="M6 12.063c2.206 0 4-1.794 4-4 0-2.207-1.794-4-4-4s-4 1.793-4 4c0 2.206 1.794 4 4 4zm28 0c2.206 0 4-1.794 4-4 0-2.207-1.794-4-4-4s-4 1.793-4 4c0 2.206 1.794 4 4 4zm2 2h-4c-1.1 0-2.094.443-2.819 1.162a9.143 9.143 0 014.694 6.838H38c1.106 0 2-.894 2-2v-2c0-2.207-1.794-4-4-4zm-16 0c3.869 0 7-3.132 7-7 0-3.87-3.131-7-7-7s-7 3.13-7 7c0 3.868 3.131 7 7 7zm4.8 2h-.519c-1.3.625-2.743 1-4.281 1-1.538 0-2.975-.375-4.281-1H15.2a7.202 7.202 0 00-7.2 7.2v1.8a3 3 0 003 3h18a3 3 0 003-3v-1.8c0-3.976-3.225-7.2-7.2-7.2zm-13.981-.838A3.988 3.988 0 008 14.063H4c-2.206 0-4 1.793-4 4v2c0 1.106.894 2 2 2h4.119a9.165 9.165 0 014.7-6.838z" fill="#fff"/></svg>
